X:1
T:MINUETTO
C:Adaptado de un minueto de James Hook
L:1/4
M:3/4
Q:80
K:C
z2c|FFA|(AG)c|GG_B|(_BA)c|
FFF|AAA|(A_B)G|F2c|FFA|(AG)c|
GG_B|(_BA)c|FFF|ccc|(A_B)G|F2z|]

          